X: 29164
T: New Algorithm March, The
R: waltz
M: 3/4
K: Eminor
|:"Em" E2 G2 A2|B2 cB AG|"C" C2 G2 GA|"Em" G4 E2|
"C" C2 AG FE|"Em" G2 EF (3GFE|"D" F2 GF EF|1 "Bm" B,2 BA GF:|2 "Bm" B,2 B,B,B,2||
|:"C" C2 CD (3EFG|"D" F2DE FD|"Em" E4 GA|"Bm" BA GB AG|
"C" C2 CD (3EFG|"D" F2DE FD|1 "Em" Bc BA BG|"D" F6:|2 "Em" Bc BA Be|"D" f6||
"G" gg gg gg|"D" ff ff ff|"Em" ee ee ee|"Bm" de dc B2|
"Em" EF (3GFE ec|"Bm" B3 A GB|"C" CG FE FG|"D" F4 d2|
"G" gd Bg dB|"D" fd Bf dB|"C" ec Ae cA|"Bm" de dc B2|
"Em" EF (3GFE ec|"Bm" B3 A GB|"C" CG FE FG|"D" F6|
|:"Em" E2 EF GB|"C" E2 EF GB|"D" AG FA GF|"C" GF EG FD|
"Em" E2 EF GB|"C" E2 EF GB|"D" Bc BA BA|"C" GA GF GD:|
|:"G" G,2 G,A, B,D|"C" C2CD (3EFG|"G" G,2 D2 G2|"D" FE DC B,A,|
"G" G,2 GA BG|"Am" AG FA GF|"Em" E2 EF GA|Bc BA GF:|

